static/assets/images/icons/info-small.svg

<svg width="256" height="256" viewBox="0 0 256 256" fill="none" xmlns="http://www.w3.org/2000/svg">
<path d="M153.836 23C167.906 23 174.941 32.576 174.941 43.5485C174.941 57.251 162.719 69.9245 146.812 69.9245C133.487 69.9245 125.717 62.0495 126.084 49.0295C126.084 38.078 135.335 23 153.836 23ZM110.545 233C99.4355 233 91.298 226.154 99.068 195.998L111.815 142.532C114.031 133.985 114.398 130.551 111.815 130.551C108.487 130.551 94.0805 136.452 85.544 142.28L80 133.04C107.006 110.087 138.076 96.6365 151.411 96.6365C162.509 96.6365 164.357 110.003 158.813 130.551L144.208 186.747C141.625 196.67 142.727 200.093 145.321 200.093C148.649 200.093 159.569 195.977 170.3 187.42L176.6 195.966C150.329 222.71 121.633 233 110.545 233Z" fill="black"/>
</svg>

<svg xmlns="http://www.w3.org/2000/svg" fill="none" viewBox="0 0 256 256"><path fill="#000" d="M153.836 23c14.07 0 21.105 9.576 21.105 20.548 0 13.703-12.222 26.376-28.129 26.376-13.325 0-21.095-7.875-20.728-20.895 0-10.951 9.251-26.029 27.752-26.029m-43.291 210c-11.11 0-19.247-6.846-11.477-37.002l12.747-53.466c2.216-8.547 2.583-11.981 0-11.981-3.328 0-17.734 5.901-26.271 11.729L80 133.04c27.006-22.953 58.076-36.403 71.411-36.403 11.098 0 12.946 13.366 7.402 33.914l-14.605 56.196c-2.583 9.923-1.481 13.346 1.113 13.346 3.328 0 14.248-4.116 24.979-12.673l6.3 8.546C150.329 222.71 121.633 233 110.545 233"/></svg>
